gama.ui.shared/icons_svg/dark/layer/chart.parameters.svg

<svg height="25" viewBox="-886.483 -3651.322 25 25" width="25" xmlns="http://www.w3.org/2000/svg"><g fill="none"><circle cx="-873.983" cy="-3638.822" fill="#666" r="12"/><circle cx="-873.983" cy="-3638.822" r="12" stroke="#fff" stroke-linecap="round" stroke-linejoin="round" stroke-width=".25"/><path d="m-869.8331-3643.695 1.1871-.243c.506-.1034 1.0215.1285 1.2798.576l.6234 1.0796c.2582.4474.2013 1.0097-.1414 1.3961l-.8031.9057c.0694.3796.1046.7666.1046 1.1583 0 .3915-.0352.7788-.1046 1.1583l.8031.9056c.3427.3864.3996.9489.1414 1.3964l-.6234 1.0796c-.2583.4474-.7738.6791-1.2798.5754l-1.1871-.2427c-.5918.5045-1.271.8981-2.0052 1.1592l-.3826 1.1475c-.1633.49-.6219.8207-1.1384.8207h-1.2468c-.5165 0-.9751-.3307-1.1384-.8207l-.3826-1.1475c-.7343-.2611-1.4134-.6547-2.0052-1.1592l-1.1871.2427c-.506.1037-1.0216-.128-1.2798-.5754l-.6234-1.0796c-.2583-.4475-.2013-1.01.1414-1.3964l.8031-.9056c-.0694-.3795-.1046-.7668-.1046-1.1583 0-.3917.0352-.7787.1046-1.1583l-.8031-.9057c-.3427-.3864-.3997-.9487-.1414-1.3961l.6234-1.0796c.2582-.4475.7738-.6794 1.2798-.576l1.1871.243c.5918-.5044 1.2709-.898 2.0052-1.159l.3826-1.148c.1633-.49.6219-.8203 1.1384-.8203h1.2468c.5165 0 .9751.3303 1.1384.8203l.3826 1.148c.7342.261 1.4134.6546 2.0052 1.159zm-2.4435-.463c-.1216-.0386-.2174-.1332-.2578-.2543l-.4455-1.3367c-.0544-.163-.2073-.2733-.3794-.2733h-1.2468c-.1722 0-.325.1103-.3795.2733l-.4455 1.3367c-.0404.1211-.1361.2157-.2577.2543-.7647.2445-1.4665.6516-2.0597 1.191-.0944.0857-.2242.1213-.3492.0957l-1.3821-.2827c-.1687-.0346-.3405.0427-.4266.192l-.6234 1.0796c-.0861.1491-.0671.3364.0471.4654l.935 1.0543c.0846.0954.1186.2254.0917.35-.084.388-.1267.7863-.1267 1.1904s.0427.8023.1267 1.1903c.0269.1247-.0071.2546-.0917.35l-.935 1.0544c-.1142.1288-.1332.3163-.0471.4656l.6234 1.0796c.0861.1491.2579.2264.4266.1918l1.3821-.2828c.125-.0256.2548.01.3492.0959.5932.5392 1.295.9465 2.0597 1.1905.1216.039.2173.1336.2577.2547l.4455 1.3363c.0545.1635.2073.2737.3795.2737h1.2468c.1721 0 .325-.1102.3794-.2737l.4455-1.3363c.0404-.1211.1362-.2157.2578-.2547.7647-.244 1.4665-.6513 2.0596-1.1905.0945-.0859.2242-.1215.3493-.0959l1.3821.2828c.1686.0346.3405-.0427.4266-.1918l.6234-1.0796c.086-.1493.0671-.3368-.0472-.4656l-.9349-1.0544c-.0846-.0954-.1187-.2253-.0917-.35.0839-.388.1267-.7862.1267-1.1903s-.0428-.8024-.1267-1.1904c-.027-.1246.0071-.2546.0917-.35l.9349-1.0543c.1143-.129.1332-.3163.0472-.4654l-.6234-1.0796c-.0861-.1493-.258-.2266-.4266-.192l-1.3821.2827c-.1251.0256-.2548-.01-.3493-.0957-.5931-.5394-1.2949-.9465-2.0596-1.191zm-1.7061 8.5357c-1.7673 0-3.2-1.4327-3.2-3.2s1.4327-3.2 3.2-3.2 3.2 1.4327 3.2 3.2-1.4327 3.2-3.2 3.2zm0-.8c1.3255 0 2.4-1.0747 2.4-2.4 0-1.3257-1.0745-2.4-2.4-2.4s-2.4 1.0743-2.4 2.4c0 1.3253 1.0745 2.4 2.4 2.4z" fill="#c0e0ff"/></g></svg>

<?xml version="1.0" encoding="UTF-8" standalone="no"?>
<!DOCTYPE svg PUBLIC "-//W3C//DTD SVG 1.1//EN" "http://www.w3.org/Graphics/SVG/1.1/DTD/svg11.dtd">
<svg xmlns="http://www.w3.org/2000/svg" xmlns:xl="http://www.w3.org/1999/xlink" version="1.1" xmlns:dc="http://purl.org/dc/elements/1.1/" viewBox="-886.4828 -3651.3223 25.000035 25" width="25.000035" height="25">
  <defs/>
  <g id="SOURCES" stroke-opacity="1" fill="none" stroke="none" fill-opacity="1" stroke-dasharray="none">
    <title>SOURCES</title>
    <g id="SOURCES_Dark">
      <title>Dark</title>
      <g id="Graphic_11596">
        <circle cx="-873.9827" cy="-3638.8223" r="12.0000278184555" fill="#666"/>
        <circle cx="-873.9827" cy="-3638.8223" r="12.0000278184555" stroke="white" stroke-linecap="round" stroke-linejoin="round" stroke-width=".25"/>
      </g>
      <g id="Graphic_11595">
        <path d="M -869.8331 -3643.695 L -868.646 -3643.938 C -868.14 -3644.0414 -867.6245 -3643.8095 -867.3662 -3643.362 L -866.7428 -3642.2824 C -866.4846 -3641.835 -866.5415 -3641.2727 -866.8842 -3640.8863 L -867.6873 -3639.9806 C -867.6179 -3639.601 -867.5827 -3639.214 -867.5827 -3638.8223 C -867.5827 -3638.4308 -867.6179 -3638.0435 -867.6873 -3637.664 L -866.8842 -3636.7584 C -866.5415 -3636.372 -866.4846 -3635.8095 -866.7428 -3635.362 L -867.3662 -3634.2824 C -867.6245 -3633.835 -868.14 -3633.6033 -868.646 -3633.707 L -869.8331 -3633.9497 C -870.4249 -3633.4452 -871.1041 -3633.0516 -871.8383 -3632.7905 L -872.2209 -3631.643 C -872.3842 -3631.153 -872.8428 -3630.8223 -873.3593 -3630.8223 L -874.6061 -3630.8223 C -875.1226 -3630.8223 -875.5812 -3631.153 -875.7445 -3631.643 L -876.1271 -3632.7905 C -876.8614 -3633.0516 -877.5405 -3633.4452 -878.1323 -3633.9497 L -879.3194 -3633.707 C -879.8254 -3633.6033 -880.341 -3633.835 -880.5992 -3634.2824 L -881.2226 -3635.362 C -881.4809 -3635.8095 -881.4239 -3636.372 -881.0812 -3636.7584 L -880.2781 -3637.664 C -880.3475 -3638.0435 -880.3827 -3638.4308 -880.3827 -3638.8223 C -880.3827 -3639.214 -880.3475 -3639.601 -880.2781 -3639.9806 L -881.0812 -3640.8863 C -881.4239 -3641.2727 -881.4809 -3641.835 -881.2226 -3642.2824 L -880.5992 -3643.362 C -880.341 -3643.8095 -879.8254 -3644.0414 -879.3194 -3643.938 L -878.1323 -3643.695 C -877.5405 -3644.1994 -876.8614 -3644.593 -876.1271 -3644.854 L -875.7445 -3646.002 C -875.5812 -3646.492 -875.1226 -3646.8223 -874.6061 -3646.8223 L -873.3593 -3646.8223 C -872.8428 -3646.8223 -872.3842 -3646.492 -872.2209 -3646.002 L -871.8383 -3644.854 C -871.1041 -3644.593 -870.4249 -3644.1994 -869.8331 -3643.695 Z M -872.2766 -3644.158 C -872.3982 -3644.1966 -872.494 -3644.2912 -872.5344 -3644.4123 L -872.9799 -3645.749 C -873.0343 -3645.912 -873.1872 -3646.0223 -873.3593 -3646.0223 L -874.6061 -3646.0223 C -874.7783 -3646.0223 -874.9311 -3645.912 -874.9856 -3645.749 L -875.4311 -3644.4123 C -875.4715 -3644.2912 -875.5672 -3644.1966 -875.6888 -3644.158 C -876.4535 -3643.9135 -877.1553 -3643.5064 -877.7485 -3642.967 C -877.8429 -3642.8813 -877.9727 -3642.8457 -878.0977 -3642.8713 L -879.4798 -3643.154 C -879.6485 -3643.1886 -879.8203 -3643.1113 -879.9064 -3642.962 L -880.5298 -3641.8824 C -880.6159 -3641.7333 -880.5969 -3641.546 -880.4827 -3641.417 L -879.5477 -3640.3627 C -879.4631 -3640.2673 -879.4291 -3640.1373 -879.456 -3640.0127 C -879.54 -3639.6247 -879.5827 -3639.2264 -879.5827 -3638.8223 C -879.5827 -3638.4182 -879.54 -3638.02 -879.456 -3637.632 C -879.4291 -3637.5073 -879.4631 -3637.3774 -879.5477 -3637.282 L -880.4827 -3636.2276 C -880.5969 -3636.0988 -880.6159 -3635.9113 -880.5298 -3635.762 L -879.9064 -3634.6824 C -879.8203 -3634.5333 -879.6485 -3634.456 -879.4798 -3634.4906 L -878.0977 -3634.7734 C -877.9727 -3634.799 -877.8429 -3634.7634 -877.7485 -3634.6775 C -877.1553 -3634.1383 -876.4535 -3633.731 -875.6888 -3633.487 C -875.5672 -3633.448 -875.4715 -3633.3534 -875.4311 -3633.2323 L -874.9856 -3631.896 C -874.9311 -3631.7325 -874.7783 -3631.6223 -874.6061 -3631.6223 L -873.3593 -3631.6223 C -873.1872 -3631.6223 -873.0343 -3631.7325 -872.9799 -3631.896 L -872.5344 -3633.2323 C -872.494 -3633.3534 -872.3982 -3633.448 -872.2766 -3633.487 C -871.5119 -3633.731 -870.8101 -3634.1383 -870.217 -3634.6775 C -870.1225 -3634.7634 -869.9928 -3634.799 -869.8677 -3634.7734 L -868.4856 -3634.4906 C -868.317 -3634.456 -868.1451 -3634.5333 -868.059 -3634.6824 L -867.4356 -3635.762 C -867.3496 -3635.9113 -867.3685 -3636.0988 -867.4828 -3636.2276 L -868.4177 -3637.282 C -868.5023 -3637.3774 -868.5364 -3637.5073 -868.5094 -3637.632 C -868.4255 -3638.02 -868.3827 -3638.4182 -868.3827 -3638.8223 C -868.3827 -3639.2264 -868.4255 -3639.6247 -868.5094 -3640.0127 C -868.5364 -3640.1373 -868.5023 -3640.2673 -868.4177 -3640.3627 L -867.4828 -3641.417 C -867.3685 -3641.546 -867.3496 -3641.7333 -867.4356 -3641.8824 L -868.059 -3642.962 C -868.1451 -3643.1113 -868.317 -3643.1886 -868.4856 -3643.154 L -869.8677 -3642.8713 C -869.9928 -3642.8457 -870.1225 -3642.8813 -870.217 -3642.967 C -870.8101 -3643.5064 -871.5119 -3643.9135 -872.2766 -3644.158 Z M -873.9827 -3635.6223 C -875.75 -3635.6223 -877.1827 -3637.055 -877.1827 -3638.8223 C -877.1827 -3640.5896 -875.75 -3642.0223 -873.9827 -3642.0223 C -872.2154 -3642.0223 -870.7827 -3640.5896 -870.7827 -3638.8223 C -870.7827 -3637.055 -872.2154 -3635.6223 -873.9827 -3635.6223 Z M -873.9827 -3636.4223 C -872.6572 -3636.4223 -871.5827 -3637.497 -871.5827 -3638.8223 C -871.5827 -3640.148 -872.6572 -3641.2223 -873.9827 -3641.2223 C -875.3082 -3641.2223 -876.3827 -3640.148 -876.3827 -3638.8223 C -876.3827 -3637.497 -875.3082 -3636.4223 -873.9827 -3636.4223 Z" fill="#c0e0ff"/>
      </g>
    </g>
  </g>
</svg>
